public/logo.svg

<svg fill="none" height="167" viewBox="0 0 395 167" width="395" xmlns="http://www.w3.org/2000/svg"><path clip-rule="evenodd" d="m29.631 0h-29.631v166.967h29.631v-120.0709l53.0927 58.4329 53.0923-58.4329v120.0709h.315 29.316 86.82 29.401.23v-44.332l47.577.107c11.217 0 20.938-1.531 29.164-4.594 8.226-3.133 15.018-7.442 20.377-12.926 5.422-5.5544 9.441-12.1063 12.058-19.6553 2.617-7.5489 3.926-15.7745 3.926-24.6765 0-9.4718-1.34-17.9822-4.019-25.5312-2.618-7.5489-6.637-13.9228-12.058-19.1216-5.422-5.27-12.245-9.29378-20.471-12.07123s-17.947-4.16617-29.164-4.16617h-43.04-33.981-86.82-.447-29.184l-53.0923 60.8902zm135.816 28.8427v95.1803l51.631-75.6313 14.021-19.549zm-5.104 102.6583v-125.66694h-22.407l-55.2123 63.32124-55.2125-63.32124h-22.40632v155.29894h19.42122v-127.9548l58.1976 64.0516 58.1973-64.0516v126.7718zm91.924-82.7233-47.808 68.6233-14.581 20.724h62.389zm24.526 89.3473h-19.422v-96.6749l24.813-35.61604h47.104c10.869 0 20.08 1.34829 27.718 3.92708 7.679 2.59296 13.831 6.27496 18.609 10.92016l.013.0127.013.0126c4.77 4.5737 8.287 10.1491 10.594 16.8015l.007.022.008.022c2.396 6.7486 3.645 14.4973 3.645 23.3381 0 8.2373-1.209 15.7257-3.567 22.5274-2.318 6.6875-5.872 12.4939-10.72 17.4614-4.74 4.849-10.878 8.797-18.566 11.728-7.585 2.821-16.741 4.3-27.562 4.301h-.005l-52.682-.119zm69.468-41.4444-.023.008c-4.785 1.7143-10.214 2.5104-16.202 2.5104h-53.243v-75.5494h53.243c11.826 0 21.649 2.907 28.558 9.7348 6.997 6.7798 10.291 16.2192 10.291 27.5058 0 5.5612-.812 10.7922-2.512 15.6185-1.676 4.8636-4.277 9.0484-7.749 12.499l-.007.0063c-3.414 3.382-7.573 5.8979-12.334 7.6584zm15.369-22.3305c1.433-4.0593 2.15-8.546 2.15-13.4599 0-9.8991-2.835-17.5905-8.506-23.0742-5.608-5.5549-14.021-8.3323-25.238-8.3323h-48.138v63.8812h48.138c5.609 0 10.5-.7478 14.676-2.2433 4.237-1.5668 7.758-3.7389 10.562-6.5163 2.867-2.8487 4.985-6.2671 6.356-10.2552z" fill="#facc15" fill-rule="evenodd"/></svg>

<svg width="395" height="167" viewBox="0 0 395 167" fill="none" xmlns="http://www.w3.org/2000/svg">
<path fill-rule="evenodd" clip-rule="evenodd" d="M29.631 0H0V166.967H29.631V46.8961L82.7237 105.329L135.816 46.8961V166.967H136.131H165.447H252.267H281.668H281.898V122.635L329.475 122.742C340.692 122.742 350.413 121.211 358.639 118.148C366.865 115.015 373.657 110.706 379.016 105.222C384.438 99.6676 388.457 93.1157 391.074 85.5667C393.691 78.0178 395 69.7922 395 60.8902C395 51.4184 393.66 42.908 390.981 35.359C388.363 27.8101 384.344 21.4362 378.923 16.2374C373.501 10.9674 366.678 6.94362 358.452 4.16617C350.226 1.38872 340.505 0 329.288 0H286.248H252.267H165.447H165H135.816L82.7237 60.8902L29.631 0ZM165.447 28.8427V124.023L217.078 48.3917L231.099 28.8427H165.447ZM160.343 131.501V5.83406H137.936L82.7237 69.1553L27.5112 5.83406H5.10488V161.133H24.5261V33.1782L82.7237 97.2298L140.921 33.1782V159.95L160.343 131.501ZM252.267 48.7777L204.459 117.401L189.878 138.125H252.267V48.7777ZM276.793 138.125H257.371V41.4501L282.184 5.83406H329.288C340.157 5.83406 349.368 7.18235 357.006 9.76114C364.685 12.3541 370.837 16.0361 375.615 20.6813L375.628 20.694L375.641 20.7066C380.411 25.2803 383.928 30.8557 386.235 37.5081L386.242 37.5301L386.25 37.5521C388.646 44.3007 389.895 52.0494 389.895 60.8902C389.895 69.1275 388.686 76.6159 386.328 83.4176C384.01 90.1051 380.456 95.9115 375.608 100.879C370.868 105.728 364.73 109.676 357.042 112.607C349.457 115.428 340.301 116.907 329.48 116.908H329.475L276.793 116.789V138.125ZM346.261 96.6806L346.238 96.6886C341.453 98.4029 336.024 99.199 330.036 99.199H276.793V23.6496H330.036C341.862 23.6496 351.685 26.5566 358.594 33.3844C365.591 40.1642 368.885 49.6036 368.885 60.8902C368.885 66.4514 368.073 71.6824 366.373 76.5087C364.697 81.3723 362.096 85.5571 358.624 89.0077L358.617 89.014C355.203 92.396 351.044 94.9119 346.283 96.6724L346.261 96.6806ZM361.63 74.3501C363.063 70.2908 363.78 65.8041 363.78 60.8902C363.78 50.9911 360.945 43.2997 355.274 37.816C349.666 32.2611 341.253 29.4837 330.036 29.4837H281.898V93.3649H330.036C335.645 93.3649 340.536 92.6171 344.712 91.1216C348.949 89.5548 352.47 87.3827 355.274 84.6053C358.141 81.7566 360.259 78.3382 361.63 74.3501Z" fill="#FACC15"/>
</svg>
